X:1
T:E minor Timothy Swan, 1790 Revised 1801
T:Nahum Tate and Nicholas Brady, 1698 (Psalm 105, Part 2) 86. 86. 86. 86. (C. M. D.)
T:Egypt
T:Transcribed from  The New England Harmony, 1801.
%%score [ 1 2 3 4 ]
L:1/8
Q:1/4=120
M:3/2
K:G
V:1 treble nm="Tr." snm="Tr."
V:2 treble nm="C." snm="C."
V:3 treble-8 nm="T." snm="T."
V:4 bass nm="B." snm="B."
V:1
"^2. He  brought  his  servants  forth,  en – riched   With  Egypt's  bor–rowed wealth;  And,  what      tran –  scends        all        trea –sures""^1. He  call'd  for   dark –ness,  dark – ness  came;  Na–ture his     sum– mons  knew;  Each  stream    and        lake,          trans–form'd   to" B4 | %1
 B8 (d2 B2) | B8 e4 | (B4 d4) (d2 B2) | A8 B4 | e8 B4 | B8 B4 | B8 d4 | d8 d4 | (g3 f e4) d4 | %10
 (B4 G4) (G2 B2) | %11
"^1. blood, The wond'ring   fi  – shes    slew.    In        pu      –      trid    floods,  throughout  the       land, The pest of frogs  was         bred;  From""^2. else,     Enrich'd  with   vigorous health.    E   –   gypt            re   –  joiced,    in      hopes  to       find  Her plagues with them removed; Taught" d8 B4 | %12
 B8 g4 | e8 (d2 B2) | A8 B4 | c8 (B2 G2) | A8 B4 | B8 (g2 d2) | B8 d4 | d2 d2 e4 f4 | g8 G4 | %21
"^1. noi –some     fens    sent      up          to      croak  At  Pharaoh's  board  and bed,  At Pharaoh's board and bed.""^2. dear – ly         now    to         fear       worse   ills   By   those  al–rea–dy prov'd,           By those already prov'd." (B4 d4) d4 | %22
 e8 B4 | (c4 A4) (B2 c2) | d8 d4 |[M:4/4] B2 B2 B2 B2 | (c3 B A2) G2 | d2 d2 d2 B2 | e8 |] %29
V:2
"^3. Their shrouding can– o  –  py       by       day    A  jour–neying  cloud  was spread;  A      fie      –      ry         pil     –       lar          all       the" E4 | %1
 B8 B4 | G8 G4 | (G4 B4) B4 | A8 G4 | G8 G4 | (B4 G4) G4 | F8 G4 | A8 (B2 G2) | G8 (F2 A2) | %10
 (G4 B4) (B2 G2) | %11
"^3. night  Their de –sert      mar– ches    led.  They      longed       for        flesh;   with   eve – ning  quails  He furnished eve – ry       tent;  From" A8 G4 | %12
 G8 ((B2 G2)) | G8 ((B2 G2)) | A8 (G2 B2) | (G4 A4) (B2 G2) | (F4 A4) (D2 G2) | G8 (G2 A2) | %18
 B8 B4 | B2 B2 (B2 G2) A4 | G8 B4 | %21
"^3. heav'n's  own   gra  –  na   –  ry,         each   morn,  The    bread of angels     sent,         The bread of angels sent." (B4 G4) D4 | %22
 G8 (G2 B2) | c8 B4 | A8 G4 |[M:4/4] B2 G2 F2 G2 | A6 B2 | G2 G2 B2 B2 | B8 |] %29
V:3
"^4. He  smote  the   rock,   whose  flinty  breast   Poured  forth a   gu – shing   tide;  Whose  flo    –    wing    stream,        wher – e'er   they""^5. Quite roo–ting  out     their  hea–then  foes    From Ca–naan's  fer – tile      soil,   To          them        in        cheap           pos  – ses –  sion" B4 | %1
 d8 B4 | (G4 E4) G4 | (G4 E4) D4 | D8 G4 | B8 (B2 d2) | e8 (e2 B2) | d8 (d2 g2) | %8
 (f3 g a4) (d2 B2) | c8 (B2 A2) | (B4 d4) (e2 B2) | %11
"^4. marched, The desert's drought supplied.  For      still            he         did        on      Abra–ham's  faith  And  ancient  league  re – flect;  He""^5. gave   The   fruit   of    o   –   thers'    toil.   That     they           his       sta   –   tutes   might  ob –serve,  His  sacred  laws   o    –     bey;   For" A8 (G2 E2) | %12
 G8 (G2 B2) | B8 (B2 d2) | d8 (B2 d2) | e8 (B2 d2) | d8 (B2 d2) | e8 (B2 d2) | d8 g4 | %19
 G2 G2 G4 (AG A2) | B8 (e2 g2) | %21
"^4. brought  his    peo – ple       forth    with     joy,   With     triumph  his  e – lect,          With triumph his e–lect.""^5. be   –    ne   –    fits     so        vast       let         us     Our  songs  of  praise  repay,         Our songs of praise repay." (d4 B4) (B2 G2) | %22
 G8 (e2 g2) | e8 e4 | f8 g4 |[M:4/4] d2 d2 d2 Bd | e6 g2 | G2 B2 d2 e2 | B8 |] %29
V:4
 E,4 | B,,8 B,,4 | E,8 E,4 | B,8 B,,4 | D,8 G,4 | E,8 G,4 | E,8 E,4 | B,,8 G,4 | D,8 G,4 | %9
 C,8 D,4 | G,8 ((E,2 G,2)) | D,8 ((E,2 G,2)) | E,8 E,4 | E,8 G,4 | D,8 G,4 | (C3 B, A,4) G,4 | %16
 D,8 G,4 | E,8 (E,2 D,2) | G,8 G,4 | B,2 B,2 E,4 D,4 | G,8 G,4 | G,8 G,4 | E,8 E,4 | %23
 A,8 ((B,2 C2)) | D8 G,4 |[M:4/4] G,2 G,2 B,2 B,2 | A,6 G,2 | G,2 G,2 B,2 B,,2 | E,8 |] %29

